X:66
T:Trip to Virginia THO4.066, A
M:C|
L:1/8
Z:vmp. Peter Dunk 2010/11.from a transcription by Fynn Titford-Mock 2007
B:Thompson's Compleat Collection of 200 Favourite Country Dances Volume IV.
Q:1/2=80
K:A
a2 fd ecBA|B2 dB AGFE|a2 fd ecBA|\
BdBG A2A2::E2 GE A2 cA|dcBA BAGF|
A2 cA B2 dB|cABG A2 [A2A,2]::afge fdec|\
dBcA BG E2|afge fdec|dBAG A2 [A2A,2]:|

